icon-themes/sifr_svg/cmd/lc_dsbformletter.svg

<svg viewBox="0 0 24 24" xmlns="http://www.w3.org/2000/svg"><path d="m3 2v17h3v3h4v-2h-2v-13h11v4h2v-6h-3v-3zm2 2h11v1h-10v12h-1zm12 8-6 3v8h12v-8zm0 2 3.199219 1.455078-3.199219 1.544922-3.199219-1.544922zm-4 3.300781 4 1.699219 4-1.699219v3.699219h-8z" fill="#555753"/></svg>

<svg xmlns="http://www.w3.org/2000/svg" viewBox="0 0 24 24">
  <path
     style="fill:#555753"
     d="M 3 2 L 3 19 L 6 19 L 6 22 L 10 22 L 10 20 L 8 20 L 8 7 L 19 7 L 19 11 L 21 11 L 21 5 L 18 5 L 18 2 L 3 2 z M 5 4 L 16 4 L 16 5 L 6 5 L 6 17 L 5 17 L 5 4 z M 17 12 L 11 15 L 11 23 L 23 23 L 23 15 L 17 12 z M 17 14 L 20.199219 15.455078 L 17 17 L 13.800781 15.455078 L 17 14 z M 13 17.300781 L 17 19 L 21 17.300781 L 21 21 L 13 21 L 13 17.300781 z "
     />
</svg>
